X:1
T:Cinta di fior'
T:Madalena Casulana
T:Source : Secondo Libro de madrigali a quattro voci---Venetia---G.Scotto---1570. Editor : André Vierendeels (02/09/17).
T:Cinta di fior'
T:Prima parte
T:©
T:©
T:©
T:©
C:Madalena Casulana
Z:©
%%score [ 1 2 3 4 ]
L:1/8
Q:1/4=120
M:4/4
K:C
V:1 treble nm="Soprano" snm="S"
V:2 treble nm="Alto 1" snm="A 1"
V:3 treble nm="Alto 2" snm="A 2"
V:4 treble-8 nm="Tenor" snm="T"
V:1
 z4 G4 | A2 A2 c3 d | e3 f g2 f2 | e3 d cB c2 | B4 z2 d2- | d2 e2 f2 ed | edef g2 c2- | c2 e2 d4 | %8
w: Cin-|ta di fior' _|_ _ _ un|gior- * * * *|no, a|_ la ri- * *|* * * * * va|_ d'un fiu-|
 c4 z2 c2 | g2 e2 e2 ^f2 | g2 g2 g2 e2 | e4 ^c2 c2 |[M:3/4] ^c3 c d2 | e2 A4 |[M:4/4] A4 z2 c2 | %15
w: me, se-|dea la nim- pha|mia pe- scand' al'|on- de, e|gli'au- gel lett'|in tor-|no, e|
 c3 c d2 A2 | c8 |[M:3/2] c4 c4 c4 | d4 e6 d2 | f4 e4 d4 | c8 B4 |[M:4/4] c4 z AAA | A2 A2 E4 | %23
w: gli'ar- bor' e le|fron-|de, Fa- cean|can- tan- do|fest' al suo|bel lu-|me, et non s'u-|di- van ven-|
 A2 D2 d3 d | d4 B4 | A4 A4 | z2 c4 d2 | efgf edec | d2 A2 c2 ed | Bcde d4 | e2 c2 c3 c | %31
w: ti, al suon d'i|dolc' ac-|cen- ti,|men- tre|lie- * * * * * * *|* ta can tan- *||do, s'ac- cor- dan|
 f2 d2 e4 | E2 G4 G2 | G8 | G8 |] %35
w: l'on- de se-|co mor- mo-|ran-|do.|
V:2
 C4 E2 E2 | F3 G A3 B | c8 | c4 G4 | G4 z2 B2- | B2 c2 c4 | c2 c2 _B2 A2 | F2 c4 B2 | A4 G4 | %9
w: Cin- ta di|fior' _ _ _|_|un gior-|no, a|_ la ri-|va d'un fiu- me,|se- dea la|nim- pha|
 G4 A2 c2- | c2 B4 A2- |"^#""^#" AG/F/ ^G2 A2 E2 |[M:3/4] A3 A A2 | A2 F4 |[M:4/4] E4 z2 A2 | %15
w: mia pe scand'|_ al' on-|* * * * de, e|gli'au- gel- lett'|in tor-|no, e|
 A3 A _B2 F2 | G8 |[M:3/2] A4 A4 A4 | A4 c6 B2 | c4 c4 G4 | G4 G8 |[M:4/4] G4 z ^FFF | ^F2 F2 A4 | %23
w: gli'ar- bor' e le|fron-|de, fa- cean|can- tan- do|fest' al suo|bel lu-|me, et non s'u-|di- van ven-|
 ^F2 G2 G3 G | A4 G4 | F2 ED E4 | ^F2 A4 B2 | c2 CD EFGA | B2 c2 AGEF | GAB c2 B/A/ B2 | %30
w: ti, al suon d'i|dolc' ac-|cen- * * *|ti, men- tre|lie- ta _ _ _ _ _|_ can- tan- * * *||
 c2 A2 A3 A | c2 B2 c4 | C2 E2 D2 C2- | C2 B,A, B,4 | C8 |] %35
w: do, s'ac- cor- dan|l'on- de se-|co mor- mo- ran-||do.|
V:3
 z8 | C4 F2 F2 | G3 F E2 A2 | G3 F ED E2 | D4 z2 G2- | G2 G2 A4 | G2 C2 DEFG | A2 G4 D2 | F4 E4 | %9
w: |Cin- ta di|fior _ _ un|gior- * * * *|no, a|_ la ri-|va d'un fiu- * * *|* me, se-|dea la|
 D2 C2 C4 | E2 D4 C2 | B,4 A,2 A2 |[M:3/4] E3 E F2 | E2 D4 |[M:4/4] ^C4 z2 F2 | F3 F FF F2- | %16
w: nim- phe mia|pe- scand' al|on- de, e|gli'au- ge- lett'|in tor-|no, e|gliar'- bor' e le fron-|
 F2 ED E4 |[M:3/2] F4 F4 F4 | F4 G6 G2 | A4 G4 D4 | E4 D8 |[M:4/4] E4 z DDD | D2 D2 ^C4 | %23
w: |de, fa- cean|can- tan- do|fest' al suo|bel lu-|me, et non s'u-|di- van ven-|
 D2 B,2 B,3 B, | A,4 D2 E2- | ED D3 ^C/B,/ C2 |"^-natural" D2 F4 D2 | CDEF G2 C2 | G2 F3 E CD | %29
w: ti, al suon d'i|dolc' ac- cen-||ti, men- tre|lie- * * * * ta|can tan- * * *|
 ECGE ^F2 G2 | C2 F2 F3 F | A2 G2 G4- | G2 C2 D2 E2 | D8 | E8 |] %35
w: |do, s'ac- cor- dan|l'on- de se-|* co mor- mo-|ran-|do.|
V:4
 z8 | F4 F2 F2 | c6 F2 | C8 | G4 z2 G2- | G2 c2 FGAB | c2 A2 G2 F2- | FF C2 G4 | z2 F2 c2 c2 | %9
w: |Cin- ta di|fior un|gior-|no, a|_ la ri- * * *|* va d'un fiu-|* me, se- dea,|se- dea la|
"^-natural" B2 c2 A4 | E2 G4 A2 | E4 A2 A2 |[M:3/4] A3 A d2 | ^c2 d4 |[M:4/4] A4 z2 F2 | %15
w: nim- pha mia|pe- scand' al'|on- de, e|gli'au- ge- lett'|in tor-|no, e|
 F3 F _B2 d2 | c8 |[M:3/2] F4 F4 F4 | D4 C6 G2 | F4 c4 B4 | c4 G8 |[M:4/4] C4 z DDD | D2 D2 A4 | %23
w: gli'ar- bor' e le|fron-|de, fa- cean|can- tan- do|fest' al suo|bel lu-|me, et non s'u-|di- van ven-|
 D2 G2 G3 G | ^F4 G4 | A4 A,4 | z8 | z8 | z8 | z8 | z2 F2 F3 F | F2 G2 C4- | C2 C2 B,2 C2 | G8 | %34
w: ti, al suon di|dolc' ac-|cen- ti,|||||s'ac- cor- dan|l'on- de se-|* co mor- mo-|ran-|
 C8 |] %35
w: do.|

